X: 101
T:Gentleman Soldier
R:jig
N:This is a song from a Dubliner's album
M:6/8
L:1/8
K:D
|"D"f2f A2B|d2e f2d|"A7"efe d2c|"D"d3 d2e|
f2f A2B|d2e f2d|"A7"efe d2c|"D"d3 d2e|
f2f f2d|"A7"e2e f2e|"G"d2d dcB|"A7"A3 A2a|
"D"a2A A2A|d2e f2d|"A7"efe d2c|"D"d3 d2e|
"Chorus"f2f fed|"A7"efe efe|"G"d2d dcB|"A7"A3 A2a|
"D"a2A A2A|d2e f2d|"A7"efe d2c|"D"d3 d2z|]
